X:253
T: FREUDE SCHOENER GOETTERFUNKEN
N: B0303
O: Europa, Mitteleuropa, Deutschland
R: Stimmungs - Lied, Freude
M: 4/4
L: 1/16
K: Bb
F3F | B4B4c4c4 | d3ef4z4
f3d | d2c2e2c2B4A4 | B8z4
F3F | B4B4c4c4 | d3ef4z4
f3d | d2c2e2c2B4A4 | B8z4
A3B | c6c2d6d2 | e3de4z4
c3c | d6d2=e6e2 | f8z4
F3F | B4B4c4c4 | d3ef4z4
f3e | d2c2e2c2B4A4 | B8z4
F3F | B6B2B6B2 | B3AA4z4
F3A | c6c2B6c2 | c4d4z4
F3F | B6A2G2F2E2D2 | G8
E4D4 | C6DEF6F2 | F4B,4z4
B3B | c6B2c6d2 | c3BB4z4

